!!!OTL: ICH WEISS EINE EWIGE SPINNERIN
!!!ARE: Europa, Mitteleuropa, Deutschland, Hessen, Taunus, Niederreifenberg
!!!SCT: E2069
!!!YEM: Copyright 1995, estate of Helmut Schaffrath.
**kern
*ICvox
*Ivox
*M6/8
*k[f#]
*G:
{8d
=1
8g
8g
8g
8b
8g
8b
=2
4dd
8dd
4b}
{8cc
=3
8dd
8dd
8dd
8ee
8dd
8cc
=4
4.b
4r}
{8dd
=5
8dd
8b
8dd
8dd
8b
8g
=6
4.ee
4dd}
{8cc
=7
8.b
16b
8b
8a
8b
8a
=8
4.g
4r}
{16g
16b
=9
4dd
8dd
4cc
8cc
=10
4b
8b
4a}
{16a
16a
=11
8.b
16b
8b
8cc
8dd
8ee
=12
[4.dd
8dd]
8r}
{8dd
=13
8dd
8b
8dd
8dd
8b
8g
=14
4.ee
4dd}
{8cc
=15
8.b
16b
8b
8a
8b
8a
=16
4.g
4r}
==
!!!AGN: geistlich, Marien - Lied, Legende
!!!ONB: ESAC (Essen Associative Code) Database: ERK3
!!!AMT: compound duple
!!!AIN: vox
!!!EED: Helmut Schaffrath
!!!EEV: 1.0
*-
